X:862
T:Spring Garden
C:anon.
O:England
S:Country Dance Tunes - Cecil Sharp
S:The English Dancing Master 1665
R:Country dance
Z:Philip Rowe
F:http://abc.musicaviva.com/tunes/england/spring-garden-190400.abc
%Posted Apr 19th 2000 at abcusers by Philip Rowe during a discussion
%about repeat signs.
M:6/8
K:Am
"Am"A2Ac2c| "Dm"d3/2e/2da3| "Am"A3"F"c3| "Dm"d3/2e/2d"A"^cA2|
"F"A2A"C"c2c| "Dm"d3/2e/2da3| "Am"A3"F"c3| "Dm"d3/2e/2d"A"^cA2|:
"Dm"f2f"C"g3/2f/2e| "F"fa2"C"g2e| "F"f2f"C"g3/2f/2e| "F"fa2"C"g2e|
"Dm"fga"C"g3/2f/2e| "Dm"dedf3/2g/2a| "F"A3"C"c3| "Dm"d3/2e/2d"A"^cA2||
"Dm"f2f"C"g3/2f/2e| "F"fa2"C"g2e| "F"f2f"C"g3/2f/2e| "F"fa2"C"g2e|
"Dm"fga"C"g3/2f/2e| "Dm"dedf3/2g/2a| "F"A3"C"c3| "Dm"d3/2e/2d"A"^cA2:|
W:
W:
W:  From Musica Viva - http://www.musicaviva.com
W:  the Internet center for free sheet music downloads.

